X: 3
T: McKenna's #2
T: Happy Days of Youth, The
T: Thos Byrne's
R: reel
M: C|
K: Emin
~e3d ~B3A|GABG AGED|G2AG de~e2|dBAd BG~G2|!
gfed edBA|~G2BG AGED|G2AG de~e2|dBAd BG~G2||!
fgag fedB|eBfa ~g3f|eB~B2 gfed|BAGA BA~A2|!
f2ag fedB|eBfa ~g3a|bgaf gfed|(3efg af ~g3f||!
